X: 1405
T: Eb Wren's Schottische
C:Benjamin Richmond (c.1900)
B: australian traditional tunes wiki
M:4/4
L:1/8
R: Schottische
Q: 1/4=100
K:C
V:1 
D>F|:"C"G>^FG>A G>E=F>G|"F"A>^GA>B "Dm"A3 B/A/|"G"G>AB>c e>dA>G|"C"A2G2G2 E>F|
"C"G>^FG>A G>E=F>G|"F"A>^GA>B "Dm"A3 B/A/|"G"G>AB>c e>dA>B|"C"d2c2 c4:|
"Am"G4 "Dm"A4|"G"B>c^c>d g4|"Am"G4 "Dm"A4|"G"B>c^c>d [B3g3] a|
"Am"g>ag>a g>cB>c|"F"g2f2f3e|"D7"d>^cd>e d>AB>=c|"G"e2d2 [B4g4]|
"Am"G4 "Dm"A4|"G"B>c^c>d g4|"Am"G4 "Dm"A4|"G"B>c^c>d [B3g3] a|
"Am"g>ag>a g>cB>c|"F"g2f2c2 "Fm"c>d|"G"e>G^F>A [A2e2] [F2d2]|"C"[E6c6]||
% abcbook-tune_id 6342d53a75429a2db9087049


% abcbook-boost 0
% abcbook-tablature 
% abcbook-transpose 
% abcbook-lastupdated 1665324363422
% abcbook-soundfonts 
% abcbook-repeats 1
% NFF Book 2006

